!!!COM: Gaspar van Weerbeke
!!!CDT: ~1450-~1517
!!!OPR: Missa O venus bant
!!!OTL: Gloria
!!!ONM: 2
!!!AGN: Mass
!!!SCT: Gas0102b
!!!SCA: Gas0102b
!!!voices: 4
**kern	**text	**kern	**text	**kern	**text	**kern	**text
*part4	*part4	*part3	*part3	*part2	*part2	*part1	*part1
*staff4	*staff4	*staff3	*staff3	*staff2	*staff2	*staff1	*staff1
*I"Bassus	*	*I"Tenor	*	*I"Altus	*	*I"Superius	*
*I'B	*	*I'T	*	*I'A	*	*I'S	*
*clefF4	*	*clefGv2	*	*clefGv2	*	*clefG2	*
*k[]	*	*k[]	*	*k[]	*	*k[]	*
*M3/2	*	*M3/2	*	*M3/2	*	*M3/2	*
*met(O|)	*	*met(C.)	*	*met(O|)	*	*met(O|)	*
=1	=1	=1	=1	=1	=1	=1	=1
!!LO:TX:a:t=O| (S, A, B)
!!LO:TX:a:t=C. (T)
1.r	.	1.r	.	1G	Et	1g	Et
.	.	.	.	2A	in	2f	in
=2	=2	=2	=2	=2	=2	=2	=2
1.r	.	1.r	.	4.G	ter-	4e	ter-
.	.	.	.	.	.	2d	.
.	.	.	.	8A	.	.	.
.	.	.	.	4B	.	.	.
.	.	.	.	4c	.	2g	.
.	.	.	.	2A	-ra	.	.
.	.	.	.	.	.	4f#i	-ra
=3	=3	=3	=3	=3	=3	=3	=3
1.r	.	1.r	.	4G	pax	4.g	pax
.	.	.	.	4.c	ho-	.	.
.	.	.	.	.	.	8f	.
.	.	.	.	.	.	4g	ho-
.	.	.	.	8B	.	.	.
.	.	.	.	4c	-mi-	2a	-mi-
.	.	.	.	2d	-ni-	.	.
.	.	.	.	.	.	8gL	-ni-
.	.	.	.	.	.	8fJ	.
=4	=4	=4	=4	=4	=4	=4	=4
1.r	.	1.r	.	4c	-bus	4e	-bus
.	.	.	.	2A	bo-	4a	bo-
.	.	.	.	.	.	4cc	.
.	.	.	.	2d	-ne	4b	.
.	.	.	.	.	.	4a	-ne
.	.	.	.	4f	vo-	[4dd	vo
!!LO:LB:g=original
=5	=5	=5	=5	=5	=5	=5	=5
1.r	.	1.r	.	2e	-lun-	4dd]	.
.	.	.	.	.	.	4cc	lun-
.	.	.	.	4.d	-ta-	4b	.
.	.	.	.	.	.	4.dd	-ta-
.	.	.	.	8c	.	.	.
.	.	.	.	8BL	.	.	.
.	.	.	.	8AJ	.	8cc	.
.	.	.	.	4G	-tis.	4b	-tis.
=6	=6	=6	=6	=6	=6	=6	=6
1.r	.	1.r	.	4c	Lau-	4a	Lau-
.	.	.	.	4B	.	4g	.
.	.	.	.	4c	.	4a	.
.	.	.	.	2d	-da-	4.b	-da-
.	.	.	.	.	.	8a	.
.	.	.	.	8cL	.	4g	.
.	.	.	.	8BJ	.	.	.
=7	=7	=7	=7	=7	=7	=7	=7
1.r	.	1.r	.	4A	-mus	4f	-mus
.	.	.	.	2B	te.	2g	te.
.	.	.	.	4A	Be-	4f	Be-
.	.	.	.	4G	.	4e	.
.	.	.	.	[4B	-ne-	[4d	-ne-
=8	=8	=8	=8	=8	=8	=8	=8
1.r	.	1.r	.	8B]L	.	8d]L	.
.	.	.	.	8AJ	.	8cJ	.
.	.	.	.	2G	-di-	4B	.
.	.	.	.	.	.	2A	-di-
.	.	.	.	4F	.	.	.
.	.	.	.	4G	.	4G	.
.	.	.	.	4A	-ci-	4c	-ci-
!!LO:LB:g=original
=9	=9	=9	=9	=9	=9	=9	=9
1.r	.	1.r	.	4G	-mus	4d	-mus
*	*	*	*	*col	*	*	*
.	.	.	.	4.c	te.	2e	te.
.	.	.	.	8d	.	.	.
*	*	*	*	*Xcol	*	*	*
.	.	.	.	2e	.	2c	.
.	.	.	.	[4c	Ad-	[4g	Ad-
=10	=10	=10	=10	=10	=10	=10	=10
1.r	.	1.r	.	4c]	.	4g]	.
.	.	.	.	4d	-o-	4f	-o-
.	.	.	.	4c	-ra-	4e	-ra-
.	.	.	.	8BL	.	8dL	.
.	.	.	.	8AJ	.	8cJ	.
.	.	.	.	4G	.	4B	.
.	.	.	.	[4g	.	[4c	.
=11	=11	=11	=11	=11	=11	=11	=11
1.r	.	1.r	.	4g]	.	4c]	.
.	.	.	.	4f	.	4d	.
.	.	.	.	4e	.	4c	.
.	.	.	.	8dL	.	8BL	.
.	.	.	.	8cJ	.	8AJ	.
.	.	.	.	4B	.	4G	.
.	.	.	.	[4c	.	[4g	.
=12	=12	=12	=12	=12	=12	=12	=12
1.r	.	1.r	.	4c]	.	8g]L	.
.	.	.	.	.	.	8eJ	.
.	.	.	.	4.d	.	4.f	.
.	.	.	.	8cL	.	8eL	.
.	.	.	.	8B	.	8d	.
.	.	.	.	8AJ	.	8cJ	.
.	.	.	.	2B	-mus	2d	-mus
!!LO:PB:g=original
=13	=13	=13	=13	=13	=13	=13	=13
*	*	*	*	*	*	*lig	*
*	*	*lig	*	*	*	*	*
1C	Glo-	[1.G	Glo-	2c	te.	2c	te.
.	.	.	.	4.e	Glo-	2cc	.
*	*	*	*	*	*	*Xlig	*
.	.	.	.	8f	.	.	.
[2GG	.	.	.	2g	.	[2b	Glo-
=14	=14	=14	=14	=14	=14	=14	=14
4GG]	.	1.G]	.	4d	-ri-	4b]	.
2C	.	.	.	2e	-fi-	2cc	.
4D	.	.	.	2d	-ca-	8bL	.
.	.	.	.	.	.	8aJ	.
2E	.	.	.	.	.	2g	.
.	.	.	.	4c#i	-mus	.	.
=15	=15	=15	=15	=15	=15	=15	=15
*	*	*col	*	*	*	*	*
2D	-ri-	[1.A	.	2d	te,	2f	-ri-
4AA	.	.	.	2r	.	4e	.
4.D	-fi-	.	.	.	.	4.f	-fi-
*	*	*	*	*	*edit	*	*
.	.	.	.	4d	glo-	.	.
8E	.	.	.	.	.	8g	.
*	*	*	*	*	*	*col	*
[4F	-ca-	.	.	4c	.	[4a	-ca-
=16	=16	=16	=16	=16	=16	=16	=16
2F]	.	2A]	.	2f	-ri-	8a]L	.
.	.	.	.	.	.	8bJ	.
*	*	*Xlig	*	*	*	*Xcol	*
.	.	.	.	.	.	2cc	.
2C	.	1G	-ri-	4.e	-fi-	.	.
.	.	.	.	.	.	8bL	.
.	.	.	.	8f	.	8aJ	.
*lig	*	*	*	*	*	*	*
2GG	.	.	.	4g	.	2b	.
.	.	.	.	4e	.	.	.
!!LO:LB:g=original
=17	=17	=17	=17	=17	=17	=17	=17
2D	.	1F	-fi-	2.f	-ca-	1a	.
*Xlig	*	*	*	*	*	*	*
4.D	.	.	.	.	.	.	.
.	.	.	.	4.d	.	.	.
8C	.	.	.	.	.	.	.
*	*	*lig	*	*	*	*	*
8BBL	.	[2G	-ca-	.	.	4b	.
8AAJ	.	.	.	8cL	.	.	.
[4GG	.	.	.	8B	.	[4dd	.
.	.	.	.	8AJ	.	.	.
=18	=18	=18	=18	=18	=18	=18	=18
4GG]	.	2G]	.	2B	.	8dd]L	.
.	.	.	.	.	.	8cc	.
4G	.	.	.	.	.	8b	.
.	.	.	.	.	.	8aJ	.
4.F	-mus	1A	-mus	8AL	-mus	8ccL	.
*	*	*Xcol	*	*	*	*	*
*	*	*Xlig	*	*	*	*	*
.	.	.	.	8B	.	8b	.
.	.	.	.	8c	.	8a	.
8E	.	.	.	16BL	.	8gJ	.
.	.	.	.	16cJJ	.	.	.
2D	te.	.	.	2d	te.	4.f#i	-mus
.	.	.	.	.	.	8e	.
=19	=19	=19	=19	=19	=19	=19	=19
*	*	*	*	*	*Xedit	*	*
4.GG	Gra-	1.G	te.	4.B	Gra-	1g	te.
8AA	.	.	.	8c	.	.	.
4BB	.	.	.	4d	.	.	.
4C	-ti-	.	.	4e	-ti-	.	.
4BB	-as	.	.	4d	-as	2r	.
*	*	*	*	*	*edit	*	*
[4C	a-	.	.	[4c	a-	.	.
=20	=20	=20	=20	=20	=20	=20	=20
4C]	.	2G	Gra-	8c]L	.	2%3r	.
.	.	.	.	8BJ	.	.	.
4E	-gi-	.	.	4G	-gi-	.	.
4D	.	4A	.	4F	-mus	.	.
4C	-mus	2c	-ti-	2G	ti-	.	.
2D	ti-	.	.	.	.	.	.
.	.	4B	.	4F	.	.	.
!!LO:LB:g=original
=21	=21	=21	=21	=21	=21	=21	=21
1.C	-bi	1.c	-as.	1G	-bi	2.e	Gra-
.	.	.	.	.	.	4e	-ti-
.	.	.	.	4r	.	2e	-as
.	.	.	.	4G	pro-	.	.
=22	=22	=22	=22	=22	=22	=22	=22
4r	.	1.r	.	4A	-pter	4f	a-
4BB	pro-	.	.	4B	.	2g	-gi-
2C	-pter	.	.	4G	.	.	.
.	.	.	.	2c	ma-	8fL	-mus
.	.	.	.	.	.	8eJ	.
2G	ma-	.	.	.	.	2d	ti-
.	.	.	.	4B	.	.	.
=23	=23	=23	=23	=23	=23	=23	=23
4C	-gnam	1.r	.	4c	-gnam	4c	-bi
2E	glo-	.	.	2g	glo-	4.G	pro-
.	.	.	.	.	.	8A	-pter
8DL	.	.	.	8fL	.	8BL	ma-
8CJ	.	.	.	8eJ	.	8cJ	.
2BB	-ri-	.	.	2d	-ri-	4d	-gnam
.	.	.	.	.	.	4f	glo-
=24	=24	=24	=24	=24	=24	=24	=24
2.C	-am	1.r	.	4c	-am	4e	-ri-
*	*	*	*	*	*	*lig	*
.	.	.	.	4G	tu	2c	-am
.	.	.	.	4E	.	.	.
4AA	.	.	.	4F	.	2cc	tu-
*	*	*	*	*	*	*Xlig	*
2GG	tu-	.	.	2D	am.	.	.
.	.	.	.	.	.	4b	.
!!LO:LB:g=original
=25	=25	=25	=25	=25	=25	=25	=25
*	*	*	*edit	*	*	*	*
2C	am.	1.c	Do-	4.E	Do-	1cc	-am.
.	.	.	.	8F	.	.	.
*	*edit	*	*	*	*	*	*
4.C	Do-	.	.	4.G	.	.	.
8D	.	.	.	8F	.	.	.
4E	.	.	.	4G	.	2r	.
[4F	.	.	.	[4A	.	.	.
=26	=26	=26	=26	=26	=26	=26	=26
4F]	.	2c	-mi-	4A]	.	2r	.
4E	.	.	.	4G	.	.	.
4D	.	4B	-ne	4F	.	2r	.
4C	.	2A	De-	4E	.	.	.
2BB	-mi	.	.	2D	-mi-	2dd	Do-
.	.	4G#j	.	.	.	.	.
=27	=27	=27	=27	=27	=27	=27	=27
*lig	*	*	*	*	*	*	*
2AA	ne	[1.A	-us,	2E	-ne	2cc	-mi-
2D	.	.	.	4D	.	4b	-ne
*Xlig	*	*	*	*	*	*	*
.	.	.	.	4.F	De-	4.a	De-
[2D	De-	.	.	.	.	.	.
.	.	.	.	8G	.	8gL	.
.	.	.	.	[4A	.	8f	.
.	.	.	.	.	.	8eJ	.
=28	=28	=28	=28	=28	=28	=28	=28
4D]	.	1.A]	.	8A]L	.	4f	.
.	.	.	.	8G	.	.	.
4.F	.	.	.	8F	.	2a	.
.	.	.	.	8EJ	.	.	.
*	*	*	*	*col	*	*	*
.	.	.	.	4.D	.	.	.
8EL	.	.	.	.	.	.	.
8D	.	.	.	.	.	4g	.
8CJ	.	.	.	8E	.	.	.
*	*	*	*	*Xcol	*	*	*
2D	.	.	.	2F	.	4f	.
.	.	.	.	.	.	8eL	.
.	.	.	.	.	.	8dJ	.
!!LO:PB:g=original
=29	=29	=29	=29	=29	=29	=29	=29
*	*	*col	*	*	*	*	*
1C	-us,	1c	Rex	2G	-us,	2e	-us,
.	.	.	.	2c	Rex-	4r	.
.	.	.	.	.	.	4e	Rex
*	*	*lig	*	*	*	*	*
4r	.	[2G	ce-	4B	-ce-	4d	.
[4E	Rex	.	.	[4B	-le-	[4g	ce-
=30	=30	=30	=30	=30	=30	=30	=30
8E]L	.	2G]	.	4B]	.	4g]	.
8FJ	.	.	.	.	.	.	.
4G	.	.	.	8AL	.	4e	.
.	.	.	.	8GJ	.	.	.
4.D	ce-	1d	.	2A	-stis,	4.f	-le-
*	*	*Xlig	*	*	*	*	*
*	*	*Xcol	*	*	*	*	*
8E	.	.	.	.	.	8g	.
4F	.	.	.	2r	.	4a	.
*col	*	*	*	*	*	*	*
[4G	-le-	.	.	.	.	[4b	.
=31	=31	=31	=31	=31	=31	=31	=31
8G]L	.	2B	.	2d	Rex	8b]L	.
8FJ	.	.	.	.	.	8aJ	.
*Xcol	*	*	*	*	*	*	*
4G	.	.	.	.	.	2g	.
4.D	.	1A	-le-	4d	ce-	.	.
*	*	*	*	*col	*	*	*
.	.	.	.	4.d	-le-	4e	.
8C	.	.	.	.	.	.	.
2D	.	.	.	.	.	2f#i	.
.	.	.	.	8c	.	.	.
*	*	*	*	*Xcol	*	*	*
.	.	.	.	4A	.	.	.
=32	=32	=32	=32	=32	=32	=32	=32
2GG	-stis,	1G	-stis,	4.B	.	2g	-stis,
.	.	.	.	8c	.	.	.
*	*	*	*	*col	*	*	*
4r	.	.	.	4.d	.	2r	.
4GG	De-	.	.	.	.	.	.
.	.	.	.	8c	.	.	.
*	*	*	*	*Xcol	*	*	*
4D	.	2r	.	2A	.	2r	.
4D	.	.	.	.	.	.	.
!!LO:LB:g=original
=33	=33	=33	=33	=33	=33	=33	=33
4E	.	4r	.	4G	.	1.r	.
4E	.	4G	De-	2c	.	.	.
4D	.	4d	.	.	.	.	.
4D	.	4d	.	4B	.	.	.
4C	.	4.e	.	2c	-stis,	.	.
4E	.	.	.	.	.	.	.
.	.	8e	.	.	.	.	.
=34	=34	=34	=34	=34	=34	=34	=34
4F	.	4d	.	1.r	.	2r	.
4G	.	4d	.	.	.	.	.
*lig	*	*	*	*	*	*	*
2C	-us	2c	-us,	.	.	2r	.
2F	.	2r	.	.	.	4r	.
*Xlig	*	*	*	*	*	*	*
.	.	.	.	.	.	4g	De-
=35	=35	=35	=35	=35	=35	=35	=35
2C	Pa-	1.r	.	4r	.	4.cc	.
.	.	.	.	4c	De-	.	.
.	.	.	.	.	.	8cc	.
1F	-ter,	.	.	4.c	.	4.a	.
.	.	.	.	8A	.	8a	.
*	*	*	*	*	*	*col	*
.	.	.	.	4.A	.	4.cc	.
.	.	.	.	8A	.	8cc	.
*	*	*	*	*	*	*Xcol	*
=36	=36	=36	=36	=36	=36	=36	=36
2r	.	1.r	.	4.c	.	4.g	.
.	.	.	.	8c	.	8g	.
*	*	*	*	*	*	*col	*
2B-X	De-	.	.	2G	-us	4.dd	.
.	.	.	.	.	.	8cc	.
*	*	*	*	*	*	*Xcol	*
4.G	.	.	.	[2d	Pa-	8b-iL	.
.	.	.	.	.	.	8aJ	.
.	.	.	.	.	.	[4b-i	-us
8F	.	.	.	.	.	.	.
!!LO:LB:g=original
=37	=37	=37	=37	=37	=37	=37	=37
8EL	.	1.r	.	4d]	.	4b-]	.
8DJ	.	.	.	.	.	.	.
2C	-us	.	.	2e	.	2cc	Pa-
4F	Pa-	.	.	4c	.	2a	.
2G	.	.	.	2B-i	.	.	.
.	.	.	.	.	.	4g	.
=38	=38	=38	=38	=38	=38	=38	=38
4D	-ter,	2r	.	1A	-ter	1a	-ter
4AA	De-	.	.	.	.	.	.
4C	.	4r	.	.	.	.	.
4C	.	4A	De-	.	.	.	.
4AA	.	4c	.	2r	.	2r	.
4AA	.	4c	.	.	.	.	.
=39	=39	=39	=39	=39	=39	=39	=39
4.D	-us	4A	.	1.r	.	1.r	.
.	.	4A	.	.	.	.	.
8C	.	.	.	.	.	.	.
8BBL	.	2d	-us	.	.	.	.
8AAJ	.	.	.	.	.	.	.
2GG	.	.	.	.	.	.	.
.	.	4B	.	.	.	.	.
4C	Pa-	[4G	Pa-	.	.	.	.
=40	=40	=40	=40	=40	=40	=40	=40
4BB	.	4G]	.	1.r	.	1.r	.
4AA	.	4c	.	.	.	.	.
2D	.	4B	.	.	.	.	.
.	.	2A	.	.	.	.	.
4BB	.	.	.	.	.	.	.
4C	.	[4G	.	.	.	.	.
=41	=41	=41	=41	=41	=41	=41	=41
2AA	.	4G]	.	1.r	.	2cc	om-
.	.	4F#i	.	.	.	.	.
4GG	-ter	4G	-ter	.	.	4b	.
2F	om-	2A	om-	.	.	2a	-ni-
4G	.	4B	.	.	.	4g	.
!!LO:LB:g=original
=42	=42	=42	=42	=42	=42	=42	=42
4A	.	4c	-ni-	2r	.	4e	-pot-
4D	-ni-	4d	.	.	.	4f	.
4G	-pot-	4B	-pot-	2r	.	4d	.
4C	.	4c	.	.	.	2g	.
2D	.	2A	.	2d	om-	.	.
.	.	.	.	.	.	4f#i	.
=43	=43	=43	=43	=43	=43	=43	=43
*	*	*	*	*	*	*	*edit
4GG	-ens,	[1.G	-ens,	4B	-ni-	4g	-ens,
4C	om-	.	.	4c	.	4e	om-
4BB	.	.	.	4d	.	4d	.
*	*	*	*	*col	*	*	*
4.C	-ni-	.	.	4.c	-pot-	4.e	-ni-
8D	.	.	.	8B	.	8f	.
*	*	*	*	*Xcol	*	*	*
[4E	-pot-	.	.	4G	.	[4g	-pot-
=44	=44	=44	=44	=44	=44	=44	=44
8E]L	.	1.G]	.	8CL	.	8g]L	.
8DJ	.	.	.	8D	.	8fJ	.
4C	.	.	.	8E	.	4e	.
.	.	.	.	8FJ	.	.	.
4BB	.	.	.	4G	.	4d	.
4C	.	.	.	2c	.	4c	.
2GG	.	.	.	.	.	2d	.
.	.	.	.	4B	.	.	.
=45	=45	=45	=45	=45	=45	=45	=45
*	*	*	*	*	*	*	*Xedit
1.Cl	-ens.	1.Gl	--ens.	1.cl	-ens.	1.el	-ens.
!!LO:PB:g=original
=46||	=46||	=46||	=46||	=46||	=46||	=46||	=46||
*M2/2	*	*M2/2	*	*M2/2	*	*M2/2	*
*met(C|)	*	*met(C|)	*	*met(C|)	*	*met(C|)	*
*	*	*	*	*	*Xedit	*	*
1r	.	1r	.	2c	Do-	1r	.
.	.	.	.	[2c	-mi-	.	.
=47	=47	=47	=47	=47	=47	=47	=47
1r	.	1r	.	4c]	.	2g	Do-
.	.	.	.	4B	.	.	.
.	.	.	.	[2G	-ne	[2g	-mi-
=48	=48	=48	=48	=48	=48	=48	=48
1r	.	1r	.	4G]	.	4g]	.
.	.	.	.	4A	.	4f	.
.	.	.	.	2B	.	2d	-ne
=49	=49	=49	=49	=49	=49	=49	=49
1r	.	1r	.	2c	Fi-	2e	Fi-
.	.	.	.	2A	.	2f	.
=50	=50	=50	=50	=50	=50	=50	=50
1r	.	1r	.	4G	.	2g	.
.	.	.	.	4.c	.	.	.
.	.	.	.	.	.	2e	.
.	.	.	.	8B	.	.	.
.	.	.	.	4c	.	.	.
!!LO:LB:g=original
=51	=51	=51	=51	=51	=51	=51	=51
1r	.	1r	.	4d	.	4d	.
.	.	.	.	2B	.	2g	.
.	.	.	.	8AL	.	8fL	.
.	.	.	.	8GJ	.	8eJ	.
=52	=52	=52	=52	=52	=52	=52	=52
1r	.	1r	.	2A	-li	2f	-li
.	.	.	.	4.G	u-	4r	.
.	.	.	.	.	.	[4g	u-
.	.	.	.	8A	.	.	.
=53	=53	=53	=53	=53	=53	=53	=53
1r	.	1r	.	4B	.	4g]	.
.	.	.	.	4c	.	4a	.
.	.	.	.	4.d	-ni-	2b	-ni-
.	.	.	.	8c	.	.	.
=54	=54	=54	=54	=54	=54	=54	=54
1r	.	1r	.	4A	.	4cc	.
.	.	.	.	4B	-ge-	4.dd	-ge-
.	.	.	.	4G	.	.	.
.	.	.	.	.	.	8cc	.
.	.	.	.	4F	.	4a	.
=55	=55	=55	=55	=55	=55	=55	=55
1r	.	1r	.	4G	.	4b	.
.	.	.	.	4B	-ni-	4g	.
.	.	.	.	4A	.	4f	.
.	.	.	.	[4G	-te	[4g	.
!!LO:LB:g=original
=56	=56	=56	=56	=56	=56	=56	=56
1r	.	1r	.	4G]	.	4g]	.
.	.	.	.	2c	Je-	4e	.
.	.	.	.	.	.	2d	-ni-
.	.	.	.	4f	.	.	.
=57	=57	=57	=57	=57	=57	=57	=57
1r	.	1r	.	4g	.	4c	-te
.	.	.	.	2e	.	2g	Je-
.	.	.	.	8dL	.	8fL	.
.	.	.	.	8cJ	.	8eJ	.
=58	=58	=58	=58	=58	=58	=58	=58
1r	.	1r	.	8dL	.	8fL	.
.	.	.	.	8c	.	8e	.
.	.	.	.	8B	.	8d	.
.	.	.	.	8AJ	.	8cJ	.
.	.	.	.	4G	.	4B	.
.	.	.	.	4A	.	4c	.
=59	=59	=59	=59	=59	=59	=59	=59
1r	.	1r	.	4B	-su	4d	-su
.	.	.	.	2c	Chri-	2e	Chri-
.	.	.	.	4d	.	4f	.
=60	=60	=60	=60	=60	=60	=60	=60
1r	.	1r	.	4e	.	4g	.
*	*	*	*	*col	*	*	*
.	.	.	.	4.f	.	4.a	.
.	.	.	.	8g	.	8g	.
*	*	*	*	*Xcol	*	*	*
.	.	.	.	4e	.	[4cc	.
!!LO:LB:g=original
=61	=61	=61	=61	=61	=61	=61	=61
1r	.	1r	.	2d	.	4cc]	.
.	.	.	.	.	.	4b	.
.	.	.	.	4c	.	4a	.
.	.	.	.	[4d	.	[4b	.
=62	=62	=62	=62	=62	=62	=62	=62
1r	.	1r	.	4d]	.	4b]	.
.	.	.	.	8cL	.	8aL	.
.	.	.	.	8BJ	.	8gJ	.
.	.	.	.	2A	.	2f#i	.
=63	=63	=63	=63	=63	=63	=63	=63
*	*Xedit	*	*	*	*	*	*
2GG	Do-	1r	.	2G	-ste.	2g	-ste.
4GG	-mi-	.	.	2r	.	2r	.
4AA	.	.	.	.	.	.	.
=64	=64	=64	=64	=64	=64	=64	=64
4GG	-ne	1r	.	4G	Do-	1r	.
4.C	De-	.	.	4A	-mi-	.	.
.	.	.	.	4G	-ne	.	.
8D	.	.	.	.	.	.	.
[4E	.	.	.	[4c	De-	.	.
=65	=65	=65	=65	=65	=65	=65	=65
4E]	.	1r	.	8c]L	.	1r	.
.	.	.	.	8dJ	.	.	.
2C	.	.	.	2e	.	.	.
*col	*	*	*	*	*	*	*
[4E	.	.	.	[4c	.	.	.
!!LO:LB:g=original
=66	=66	=66	=66	=66	=66	=66	=66
8E]L	.	1r	.	4c]	.	1r	.
8FJ	.	.	.	.	.	.	.
*Xcol	*	*	*	*lig	*	*	*
2G	.	.	.	2e	.	.	.
[4E	.	.	.	[4g	.	.	.
=67	=67	=67	=67	=67	=67	=67	=67
8E]L	.	1r	.	4g]	.	1r	.
*	*	*	*	*Xlig	*	*	*
8CJ	.	.	.	.	.	.	.
4D	.	.	.	4f	.	.	.
8CL	.	.	.	4.e	.	.	.
8D	.	.	.	.	.	.	.
8E	.	.	.	.	.	.	.
8FJ	.	.	.	16dLL	.	.	.
.	.	.	.	16cJJ	.	.	.
=68	=68	=68	=68	=68	=68	=68	=68
2G	-us,	1r	.	2B	-us,	1r	.
4F	.	.	.	4r	.	.	.
[4E	A-	.	.	[4g	A-	.	.
=69	=69	=69	=69	=69	=69	=69	=69
4E]	.	1r	.	4g]	.	1r	.
8DL	.	.	.	8fL	.	.	.
8CJ	.	.	.	8eJ	.	.	.
4.BB	-gnus	.	.	4.d	-gnus	.	.
8AA	.	.	.	8e	.	.	.
=70	=70	=70	=70	=70	=70	=70	=70
4BB	.	1r	.	8fL	.	1r	.
.	.	.	.	8gJ	.	.	.
4C	.	.	.	4e	.	.	.
4BB	.	.	.	4d	.	.	.
[4C	De-	.	.	[4e	De-	.	.
!!LO:PB:g=original
=71	=71	=71	=71	=71	=71	=71	=71
4C]	.	1r	.	4e]	.	1r	.
4E	.	.	.	8dL	.	.	.
.	.	.	.	8cJ	.	.	.
4D	.	.	.	4B	.	.	.
4C	.	.	.	[4c	.	.	.
=72	=72	=72	=72	=72	=72	=72	=72
2D	.	1r	.	4c]	.	2r	.
.	.	.	.	4B	.	.	.
4C	.	.	.	4A	.	4r	.
[4D	.	.	.	[4B	.	[4d	Do-
=73	=73	=73	=73	=73	=73	=73	=73
4D]	.	1r	.	4B]	.	8d]L	.
.	.	.	.	.	.	8e	.
4BB	.	.	.	8AL	.	8f	.
.	.	.	.	8GJ	.	8gJ	.
2AA	.	.	.	2F#i	.	8aL	.
.	.	.	.	.	.	8b	.
.	.	.	.	.	.	8cc	.
.	.	.	.	.	.	8ddJ	.
=74	=74	=74	=74	=74	=74	=74	=74
4GG	-i,	1r	.	4G	-i,	4b	-mi-
4AA	.	.	.	4c	Fi-	2a	-ne
4BB	Fi-	.	.	4d	.	.	.
4GG	.	.	.	4B	-li-	[4g	De-
=75	=75	=75	=75	=75	=75	=75	=75
2D	-li-	1r	.	2A	.	4g]	.
.	.	.	.	.	.	4f#i	.
4E	-us	.	.	4G	-us	2g	-us,
*lig	*	*	*	*	*	*	*
[4C	Pa-	.	.	[4c	Pa-	.	.
!!LO:LB:g=original
=76	=76	=76	=76	=76	=76	=76	=76
4C]	.	1r	.	4c]	.	4e	A-
2F	.	.	.	4A	.	4c	-gnus
*Xlig	*	*	*	*	*	*	*
.	.	.	.	[2d	.	[2f	De-
*lig	*	*	*	*	*	*	*
[4D	.	.	.	.	.	.	.
=77	=77	=77	=77	=77	=77	=77	=77
4D]	.	1r	.	4d]	.	4f]	.
2G	.	.	.	4B	.	4d	-i,
*Xlig	*	*	*	*	*	*	*
.	.	.	.	[2e	.	[2g	Fi-
*lig	*	*	*	*	*	*	*
[4E	.	.	.	.	.	.	.
=78	=78	=78	=78	=78	=78	=78	=78
4E]	.	1r	.	2e]	.	4g]	.
2A	.	.	.	.	.	4e	-li-
.	.	.	.	4c	.	[2a	-us
*Xlig	*	*	*	*col	*	*	*
[4F	.	.	.	[4f	.	.	.
=79	=79	=79	=79	=79	=79	=79	=79
4F]	.	1r	.	8f]L	.	4a]	.
.	.	.	.	8eJ	.	.	.
*	*	*	*	*Xcol	*	*	*
4A	.	.	.	4f	.	4cc	Pa-
4G	.	.	.	4g	.	4b	.
[4C	.	.	.	[4e	.	[4g	.
=80	=80	=80	=80	=80	=80	=80	=80
8C]L	.	1r	.	4e]	.	4g]	.
8D	.	.	.	.	.	.	.
8E	.	.	.	8dL	.	8fL	.
8FJ	.	.	.	8cJ	.	8eJ	.
2G	.	.	.	2B	.	2d	.
=81	=81	=81	=81	=81	=81	=81	=81
1Cl	-tris.	1r	.	1cl	-tris.	1el	-tris.
!!LO:LB:g=original
=82||	=82||	=82||	=82||	=82||	=82||	=82||	=82||
!!LO:TX:a:t=C| (S, A, B)
!!LO:TX:a:t=C (T)
*M2/2	*	*M2/2	*	*M2/2	*	*M2/2	*
*met(C|)	*	*met(C)	*	*met(C|)	*	*met(C|)	*
1r	.	1r	.	1r	.	1g	Qui
=83	=83	=83	=83	=83	=83	=83	=83
1r	.	1r	.	1r	.	2g	tol-
.	.	.	.	.	.	2g	-lis
=84	=84	=84	=84	=84	=84	=84	=84
1r	.	1r	.	1r	.	2a	pec-
.	.	.	.	.	.	2a	-ca-
=85	=85	=85	=85	=85	=85	=85	=85
1r	.	1r	.	1G	Qui	2g	-ta
.	.	.	.	.	.	8gL	mun-
.	.	.	.	.	.	8a	.
.	.	.	.	.	.	8b	.
.	.	.	.	.	.	8aJ	.
=86	=86	=86	=86	=86	=86	=86	=86
1r	.	1r	.	2G	tol-	2.b	.
.	.	.	.	2G	-lis	.	.
.	.	.	.	.	.	8aL	.
.	.	.	.	.	.	8gJ	.
!!LO:LB:g=original
=87	=87	=87	=87	=87	=87	=87	=87
1r	.	1r	.	2A	pec-	4f	.
.	.	.	.	.	.	2g	.
.	.	.	.	2A	-ca-	.	.
.	.	.	.	.	.	4f#i	.
=88	=88	=88	=88	=88	=88	=88	=88
1GG	Qui	1r	.	2G	-ta	4.g	-di
.	.	.	.	.	.	8f	.
.	.	.	.	8GL	mun-	2d	.
.	.	.	.	8A	.	.	.
.	.	.	.	8B	.	.	.
.	.	.	.	8AJ	.	.	.
=89	=89	=89	=89	=89	=89	=89	=89
*	*	*	*	*	*	*	*edit
2GG	tol-	1r	.	2.B	.	4G	mun-
.	.	.	.	.	.	2d	.
2GG	-lis	.	.	.	.	.	.
.	.	.	.	8AL	.	8cL	.
.	.	.	.	8GJ	.	8BJ	.
=90	=90	=90	=90	=90	=90	=90	=90
2AA	pec-	1r	.	4F#i	.	2A	-di,
.	.	.	.	2G	.	.	.
2AA	-ca-	.	.	.	.	2r	.
.	.	.	.	4F#i	.	.	.
=91	=91	=91	=91	=91	=91	=91	=91
*	*	*	*Xedit	*	*	*	*Xedit
4.GG	-ta	1G	Qui	2G	-di,	2.d	mi-
8AA	.	.	.	.	.	.	.
4BB	.	.	.	[2g	mi-	.	.
[4C	.	.	.	.	.	[4e	-se-
!!LO:PB:g=original
=92	=92	=92	=92	=92	=92	=92	=92
8C]L	.	2G	tol-	4g]	.	8e]L	.
8DJ	.	.	.	.	.	8dJ	.
4.E	.	.	.	4f	.	4.g	-re-
.	.	2G	-lis	2e	-se-	.	.
8D	.	.	.	.	.	8a	.
[4G	mun-	.	.	.	.	4b	.
=93	=93	=93	=93	=93	=93	=93	=93
4G]	.	2A	pec-	4c	.	2.cc	-re
8FL	.	.	.	4.f	-re-	.	.
8EJ	.	.	.	.	.	.	.
2F	.	2A	-ca-	.	.	.	.
.	.	.	.	8eL	.	.	.
.	.	.	.	8d	.	8bL	.
.	.	.	.	8cJ	.	8aJ	.
=94	=94	=94	=94	=94	=94	=94	=94
1G	-di,	[1G	-ta	4.B	-re	2b	no-
.	.	.	.	8c	.	.	.
.	.	.	.	4d	no-	8bL	.
.	.	.	.	.	.	8a	.
.	.	.	.	4B	.	8g	.
.	.	.	.	.	.	8fJ	.
=95	=95	=95	=95	=95	=95	=95	=95
[1C	mi-	1G]	.	2.c	-bis.	1e	-bis.
.	.	.	.	4B	Qui	.	.
=96	=96	=96	=96	=96	=96	=96	=96
*	*	*col	*	*	*	*	*
2C]	.	[1G	mun-	2c	tol-	2e	Qui
2C	-se-	.	.	4G	-lis	2g	tol-
*	*	*	*	*col	*	*	*
.	.	.	.	[4c	pec-	.	.
!!LO:LB:g=original
=97	=97	=97	=97	=97	=97	=97	=97
2.C	-re-	_1G_	.	8c]L	.	4e	-lis
.	.	.	.	8dJ	.	.	.
*	*	*	*	*Xcol	*	*	*
.	.	.	.	2e	.	2c	pec-
[4BB-X	-re	.	.	[4d	-ca-	[4g	-ca-
=98	=98	=98	=98	=98	=98	=98	=98
4BB-]	.	_1G_	.	4d]	.	4g]	.
4C	no-	.	.	2c	.	8fL	.
.	.	.	.	.	.	8eJ	.
2GG	-bis.	.	.	.	.	2d	-ta
.	.	.	.	4B	-ta	.	.
=99	=99	=99	=99	=99	=99	=99	=99
4.C	Qui	1G]	.	1c	mun-	8cL	mun-
.	.	.	.	.	.	8d	.
.	.	.	.	.	.	8e	.
8D	.	.	.	.	.	8fJ	.
2E	tol-	.	.	.	.	4g	.
.	.	.	.	.	.	8fL	.
.	.	.	.	.	.	8eJ	.
=100	=100	=100	=100	=100	=100	=100	=100
1D	-lis	[1A	.	2.d	-di,	2.f	-di,
*	*	*	*	*	*edit	*	*
.	.	.	.	4c	sus-	[4f	sus-
=101	=101	=101	=101	=101	=101	=101	=101
*col	*edit	*	*	*	*	*	*
4.D	pec-	1A_	.	4.A	.	8f]L	.
.	.	.	.	.	.	8gJ	.
.	.	.	.	.	.	4.a	.
8C	.	.	.	8B	.	.	.
*Xcol	*	*	*	*	*	*	*
*lig	*	*	*	*	*	*	*
[2AA	-ca-	.	.	4.c	.	.	.
.	.	.	.	.	.	8b	.
.	.	.	.	.	.	[4cc	.
.	.	.	.	8B	.	.	.
!!LO:LB:g=original
=102	=102	=102	=102	=102	=102	=102	=102
4AA]	.	1A]	.	8AL	.	8cc]L	.
*	*	*Xcol	*	*	*	*	*
.	.	.	.	8GJ	.	8b	.
2.D	.	.	.	4.F	.	8a	.
.	.	.	.	.	.	8gJ	.
*Xlig	*	*	*	*	*	*	*
.	.	.	.	.	.	4.f#j	-ci-
.	.	.	.	8G	.	.	.
.	.	.	.	4A	-ci-	.	.
.	.	.	.	.	.	8e	.
=103	=103	=103	=103	=103	=103	=103	=103
2GG	-ta	[1G	-di,	2B	-pe	1g	-pe
*	*	*	*	*	*Xedit	*	*
4.C	mun-	.	.	4.c	de-	.	.
8D	.	.	.	8B	.	.	.
=104	=104	=104	=104	=104	=104	=104	=104
8EL	.	2G]	.	4.G	-pre-	1r	.
8FJ	.	.	.	.	.	.	.
2G	-di,	.	.	.	.	.	.
.	.	.	.	8A	.	.	.
*	*	*	*edit	*	*	*	*
.	.	4G	sus-	8BL	-ca-	.	.
.	.	.	.	8cJ	.	.	.
4F	sus-	4A	.	4d	.	.	.
=105	=105	=105	=105	=105	=105	=105	=105
4E	.	4G	.	2e	-ti-	4.g	de-
4C	-ci-	2c	-ci-	.	.	.	.
.	.	.	.	.	.	8f	.
2D	-pe	.	.	2f	-o-	4d	-pre-
.	.	4B	.	.	.	4d	-ca-
=106	=106	=106	=106	=106	=106	=106	=106
4.C	de-	1c	-pe	4e	-nem	4e	-ti-
.	.	.	.	2g	no-	4c	-o-
8D	-pre-	.	.	.	.	.	.
4E	-ca-	.	.	.	.	4g	-nem
4F	-ti-	.	.	4f	.	4a	.
!!LO:LB:g=original
=107	=107	=107	=107	=107	=107	=107	=107
4G	-o-	1r	.	4e	.	4g	.
4A	-nem	.	.	4c	.	2cc	no-
2G	no-	.	.	2d	.	.	.
.	.	.	.	.	.	4b	.
=108	=108	=108	=108	=108	=108	=108	=108
*	*	*	*Xedit	*	*	*	*
1C	-stram.	[1c	de-	1c	-stram.	1cc	-stram.
=109	=109	=109	=109	=109	=109	=109	=109
2.E	Qui	1c]	.	1r	.	2.g	Qui
4E	se-	.	.	.	.	4g	se-
=110	=110	=110	=110	=110	=110	=110	=110
2F	.	1c	-pre-	1r	.	2a	.
2E	.	.	.	.	.	2g	.
=111	=111	=111	=111	=111	=111	=111	=111
*	*	*	*	*	*edit	*	*
1C	-des	1c	-ca-	2e	Qui	2e	-des
.	.	.	.	2e	se-	2a	ad
!!LO:PB:g=original
=112	=112	=112	=112	=112	=112	=112	=112
2r	.	1A	-ti-	2.f	-des	2.a	dex-
[2F	dex-	.	.	.	.	.	.
.	.	.	.	4e	.	4a	-te-
=113	=113	=113	=113	=113	=113	=113	=113
4F]	.	[1A	-o-	2c	ad	2a	-ram
4F	-te-	.	.	.	.	.	.
2F	-ram	.	.	[2f	dex-	2cc	Pa-
=114	=114	=114	=114	=114	=114	=114	=114
4r	.	1A]	.	4f]	.	2cc	-tris,
4F	Pa-	.	.	4f	-te-	.	.
2F	-tris,	.	.	2c	-ram	2cc	mi-
=115	=115	=115	=115	=115	=115	=115	=115
4r	.	1A	-nem	2c	Pa-	4b	.
4F	mi-	.	.	.	.	2a	-se-
2F	-se-	.	.	2A	.	.	.
.	.	.	.	.	.	8gL	.
.	.	.	.	.	.	8fJ	.
=116	=116	=116	=116	=116	=116	=116	=116
2.C	-re-	[1c	no-	2.G	-tris,	4.e	-re-
.	.	.	.	.	.	8f	.
.	.	.	.	.	.	4g	.
4C	-re	.	.	[4g	mi-	[4c	-re
!!LO:LB:g=original
=117	=117	=117	=117	=117	=117	=117	=117
2C	no-	1c]	.	8g]L	.	4c]	.
.	.	.	.	8fJ	.	.	.
.	.	.	.	2e	-se-	2g	no-
2C	-bis.	.	.	.	.	.	.
.	.	.	.	4d	.	4a	.
=118	=118	=118	=118	=118	=118	=118	=118
1r	.	1c	-stram,	2.e	-re-	4g	.
.	.	.	.	.	.	2cc	.
.	.	.	.	4f	-re	4a	.
=119	=119	=119	=119	=119	=119	=119	=119
*	*	*	*edit	*	*	*	*
2.E	Quo-	1G	no-	2.g	no-	1b	-bis.
4E	-ni-	.	.	8fL	.	.	.
.	.	.	.	8eJ	.	.	.
=120	=120	=120	=120	=120	=120	=120	=120
2E	-am	1G	-stram.	8fL	.	2g	Quo-
.	.	.	.	8e	.	.	.
.	.	.	.	8d	.	.	.
.	.	.	.	8cJ	.	.	.
[2E	tu-	.	.	2B	-bis.	4.g	-ni-
.	.	.	.	.	.	8f	.
=121	=121	=121	=121	=121	=121	=121	=121
4E]	.	1r	.	1r	.	4g	-am
*	*	*	*	*	*	*	*edit
4F	.	.	.	.	.	4.a	tu
4E	.	.	.	.	.	.	.
.	.	.	.	.	.	8gL	.
8DL	.	.	.	.	.	8f	.
8CJ	.	.	.	.	.	8eJ	.
!!LO:LB:g=original
=122	=122	=122	=122	=122	=122	=122	=122
4.BB	-so-	1r	.	1r	.	4.d	so-
8AA	.	.	.	.	.	8c	.
2BB	-lus,-	.	.	.	.	2d	-lus,
=123	=123	=123	=123	=123	=123	=123	=123
*	*	*	*Xedit	*	*	*	*
1C	-tu	1G	Tu	2.c	Quo-	2.e	quo-
.	.	.	.	4B	-ni-	4f	-ni-
=124	=124	=124	=124	=124	=124	=124	=124
[1BB	so-	[1d	so-	4.G	-am	2.g	-am
.	.	.	.	8A	.	.	.
.	.	.	.	2B	tu	.	.
.	.	.	.	.	.	4a	.
=125	=125	=125	=125	=125	=125	=125	=125
*	*	*	*	*	*	*	*Xedit
2BB]	.	1d]	.	8GL	so-	2b	tu
.	.	.	.	8A	.	.	.
.	.	.	.	8B	.	.	.
.	.	.	.	8cJ	.	.	.
2BB	-lus	.	.	2d	.	8bL	so-
.	.	.	.	.	.	8a	.
.	.	.	.	.	.	8g	.
.	.	.	.	.	.	8fJ	.
=126	=126	=126	=126	=126	=126	=126	=126
1C	san-	2.G	-lus	4c	-lus	2e	-lus
.	.	.	.	2g	san-	.	.
*	*	*	*	*	*	*	*edit
.	.	.	.	.	.	2e	san-
.	.	4A	.	8fL	.	.	.
.	.	.	.	8eJ	.	.	.
!!LO:LB:g=original
=127	=127	=127	=127	=127	=127	=127	=127
2BB	-ctus,-	4B	.	1f	-ctus,	2d	-ctus,
.	.	4c	.	.	.	.	.
2BB	-tu	2d	.	.	.	4r	.
.	.	.	.	.	.	4d	tu
=128	=128	=128	=128	=128	=128	=128	=128
*	*	*lig	*	*	*	*	*
2C	so-	1G	san-	2e	tu-	4e	.
*	*	*	*	*	*	*	*Xedit
.	.	.	.	.	.	2g	so-
2E	-lus	.	.	4B	-so-	.	.
*	*	*	*	*	*	*	*edit
.	.	.	.	4c	-lus	8fL	-lus
.	.	.	.	.	.	8eJ	.
=129	=129	=129	=129	=129	=129	=129	=129
*	*	*	*	*	*	*	*Xedit
1D	san-	1A	.	2d	san-	2f	san-
*	*	*Xlig	*	*	*	*	*edit
.	.	.	.	2d	-ctus,	2f	-ctus,
=130	=130	=130	=130	=130	=130	=130	=130
2E	-ctus,	[1G	-ctus,	2B	san-	4r	.
.	.	.	.	.	.	4.g	san-
2C	tu	.	.	4c	.	.	.
.	.	.	.	.	.	8f	.
.	.	.	.	[4G	.	[4e	.
=131	=131	=131	=131	=131	=131	=131	=131
4C	so-	1G]	.	4G]	.	4e]	.
4C	-lus	.	.	4E	.	8dL	.
.	.	.	.	.	.	8cJ	.
*lig	*	*	*	*	*	*	*
2GG	san-	.	.	2D	.	2B	.
!!LO:PB:g=original
=132	=132	=132	=132	=132	=132	=132	=132
2C	.	1r	.	4.E	.	4c	.
*Xlig	*	*	*	*	*	*	*
.	.	.	.	.	.	2e	.
.	.	.	.	8F	.	.	.
4BB	.	.	.	8GL	.	.	.
.	.	.	.	8AJ	.	.	.
[4GG	.	.	.	[4B	.	[4d	.
=133	=133	=133	=133	=133	=133	=133	=133
8GG]L	.	1r	.	4B]	.	4d]	.
8AA	.	.	.	.	.	.	.
8BB	.	.	.	8AL	.	8cL	.
8CJ	.	.	.	8GJ	.	8BJ	.
2D	.	.	.	2F#i	.	2A	.
=134	=134	=134	=134	=134	=134	=134	=134
*	*	*	*edit	*	*	*	*Xedit
1GGl	-ctus.	1Gl	--ctus.	1Gl 1dl	-ctus.	1Gl	-ctus.
=135||	=135||	=135||	=135||	=135||	=135||	=135||	=135||
*M3/2	*	*M3/2	*	*M3/2	*	*M3/2	*
*met(C|3)	*	*met(C|3)	*	*met(C|3)	*Xedit	*met(C|3)	*
!!LO:TX:a:t=C|3
1.r	.	1.r	.	1.c	Tu	1.r	.
=136	=136	=136	=136	=136	=136	=136	=136
1.r	.	1.r	.	1c	so-	1.g	Tu
.	.	.	.	2B	-lus	.	.
!!LO:LB:g=original
=137	=137	=137	=137	=137	=137	=137	=137
*	*	*	*	*lig	*	*	*
*	*	*	*	*col	*	*	*
1.r	.	1.r	.	1G	Do-	2.g	so-
.	.	.	.	.	.	4f	-lus
.	.	.	.	[2B	.	[2d	Do-
=138	=138	=138	=138	=138	=138	=138	=138
1.r	.	1.r	.	2B]	.	4d]	.
.	.	.	.	.	.	4e	.
.	.	.	.	1d	.	2.f	.
*	*	*	*	*Xlig	*	*	*
.	.	.	.	.	.	4g	.
=139	=139	=139	=139	=139	=139	=139	=139
1.r	.	1.r	.	2A	.	2.a	.
.	.	.	.	1c	-mi-	.	.
.	.	.	.	.	.	4g	.
.	.	.	.	.	.	4e	.
.	.	.	.	.	.	4d	.
=140	=140	=140	=140	=140	=140	=140	=140
1.r	.	1.r	.	2B	.	1g	-mi-
.	.	.	.	1A	-nus.	.	.
*	*	*	*	*Xcol	*	*	*
.	.	.	.	.	.	2f#i	.
=141	=141	=141	=141	=141	=141	=141	=141
*lig	*Xedit	*	*Xedit	*	*	*	*
*col	*	*	*	*	*	*	*
1GG	Tu	1.G	Tu	1.r	.	1g	-nus.
[2C	.	.	.	.	.	2r	.
!!LO:LB:g=original
=142	=142	=142	=142	=142	=142	=142	=142
2C]	.	2.G	so-	1.r	.	1.r	.
1E	.	.	.	.	.	.	.
*Xcol	*	*	*	*	*	*	*
*Xlig	*	*	*	*	*	*	*
.	.	4A	.	.	.	.	.
.	.	4B	.	.	.	.	.
.	.	4c	.	.	.	.	.
=143	=143	=143	=143	=143	=143	=143	=143
*	*	*lig	*	*	*	*	*
2.D	so-	1.d	-lus	1.r	.	1.r	.
4E	.	.	.	.	.	.	.
2F	.	.	.	.	.	.	.
=144	=144	=144	=144	=144	=144	=144	=144
2G	-lus	1e	.	1.r	.	1.r	.
*	*	*Xlig	*	*	*	*	*
2C	Al-	.	.	.	.	.	.
2BB	-tis-	2d	Al-	.	.	.	.
=145	=145	=145	=145	=145	=145	=145	=145
*lig	*	*	*	*	*	*	*
2C	-si-	1c	-tis-	1.r	.	1.r	.
1D	.	.	.	.	.	.	.
*Xlig	*	*	*	*	*	*	*
.	.	2B	-si-	.	.	.	.
=146	=146	=146	=146	=146	=146	=146	=146
1C	-mus,	1c	-mus,	2.G	Je-	2.e	Je-
.	.	.	.	4A	.	4f	.
2r	.	2r	.	2B	.	2g	.
!!LO:LB:g=original
=147	=147	=147	=147	=147	=147	=147	=147
1.r	.	1.r	.	2c	.	2a	-su
.	.	.	.	1d	-su	4b	.
.	.	.	.	.	.	2a	Chri-
.	.	.	.	.	.	8gL	.
.	.	.	.	.	.	8fJ	.
=148	=148	=148	=148	=148	=148	=148	=148
1.r	.	1.r	.	2.c	Chri-	2.e	.
.	.	.	.	4d	.	4f	.
.	.	.	.	4e	.	2g	.
.	.	.	.	4f	.	.	.
=149	=149	=149	=149	=149	=149	=149	=149
1.r	.	1.r	.	2g	.	2c	.
.	.	.	.	2c	.	2cc	.
.	.	.	.	2G	.	2b	.
=150	=150	=150	=150	=150	=150	=150	=150
1.r	.	1.r	.	1A	.	2a	.
.	.	.	.	.	.	4g	.
.	.	.	.	.	.	2f	.
.	.	.	.	2B	.	.	.
.	.	.	.	.	.	8eL	.
.	.	.	.	.	.	8dJ	.
=151	=151	=151	=151	=151	=151	=151	=151
*	*edit	*	*edit	*	*	*	*
1.r	.	1c	Al-	1c	-ste.	1e	-ste.
.	.	2c	-tis-	2r	.	2r	.
!!LO:PB:g=original
=152	=152	=152	=152	=152	=152	=152	=152
1C	Al-	1A	-si-	1.r	.	1.r	.
2C	-tis-	2A	-mus,	.	.	.	.
=153	=153	=153	=153	=153	=153	=153	=153
*	*	*	*Xedit	*	*	*	*
1AA	-si-	1c	Je-	1.r	.	1.r	.
2AA	-mus,	2c	-su	.	.	.	.
*	*Xedit	*	*	*	*	*	*
=154	=154	=154	=154	=154	=154	=154	=154
1C	Je-	2.G	Chri-	1.r	.	1.r	.
.	.	4A	.	.	.	.	.
2BB	-su	4B	.	.	.	.	.
.	.	4c	.	.	.	.	.
=155	=155	=155	=155	=155	=155	=155	=155
2GG	Chri-	2d	.	1.r	.	1.r	.
4AA	.	4c	.	.	.	.	.
2BB	.	2B	.	.	.	.	.
4C	.	4A	.	.	.	.	.
=156	=156	=156	=156	=156	=156	=156	=156
2D	.	1A	.	1.r	.	1.r	.
8DL	.	.	.	.	.	.	.
8C	.	.	.	.	.	.	.
8BB	.	.	.	.	.	.	.
8AAJ	.	.	.	.	.	.	.
2BB	.	2G#i	.	.	.	.	.
!!LO:LB:g=original
=157	=157	=157	=157	=157	=157	=157	=157
*	*	*	*	*	*Xedit	*	*
1AA	-ste.	1A	-ste.	2.c	Cum	2.e	Cum
.	.	.	.	4d	.	4f	.
2r	.	2r	.	2e	.	2g	.
=158	=158	=158	=158	=158	=158	=158	=158
1.r	.	1.r	.	2.f	San-	2.a	San-
.	.	.	.	4d	.	4b	.
.	.	.	.	2e	.	2cc	.
=159	=159	=159	=159	=159	=159	=159	=159
1.r	.	1.r	.	2d	.	2.dd	-cto
.	.	.	.	1g	-cto	.	.
.	.	.	.	.	.	8ccL	.
.	.	.	.	.	.	8bJ	.
.	.	.	.	.	.	8ccL	.
.	.	.	.	.	.	8b	.
.	.	.	.	.	.	8a	.
.	.	.	.	.	.	8gJ	.
=160	=160	=160	=160	=160	=160	=160	=160
1.r	.	1.r	.	2f	.	2a	.
.	.	.	.	2g	Spi-	2.b	Spi-
.	.	.	.	2G	.	.	.
.	.	.	.	.	.	4a	.
=161	=161	=161	=161	=161	=161	=161	=161
*	*	*	*	*lig	*	*	*
1.r	.	1.r	.	2B	-ri-	1g	-ri-
.	.	.	.	1A	.	.	.
*	*	*	*	*Xlig	*	*	*
.	.	.	.	.	.	2f#i	.
!!LO:LB:g=original
=162	=162	=162	=162	=162	=162	=162	=162
1C	In	1c	In	1G	-tu,	1g	-tu,
2F	glo-	2c	glo-	2r	.	2r	.
=163	=163	=163	=163	=163	=163	=163	=163
2.F	-ri-	2.A	-ri-	1.r	.	1cc	in
4G	.	4B	.	.	.	.	.
2A	-a	2c	-a	.	.	2cc	glo-
=164	=164	=164	=164	=164	=164	=164	=164
4.D	De-	2.d	De-	1A	in	1a	-ri-
8E	.	.	.	.	.	.	.
2F	.	.	.	.	.	.	.
.	.	4c	.	.	.	.	.
2G	-i	4B	-i	2G	.	2b	-a
.	.	4A	.	.	.	.	.
=165	=165	=165	=165	=165	=165	=165	=165
2.B-X	Pa-	2.G	Pa-	1g	glo-	2.dd	De-
4A	.	4A	.	.	.	4cc	.
2G	.	2B-i	.	2d	-ri	4b-i	.
.	.	.	.	.	.	4a	.
=166	=166	=166	=166	=166	=166	=166	=166
2C	.	2c	.	2e	a	1g	-i
1D	-tris.	1A	-tris.	4d	.	.	.
.	.	.	.	4.d	De-	.	.
.	.	.	.	.	.	2f	Pa-
.	.	.	.	8cL	.	.	.
.	.	.	.	8B	.	.	.
.	.	.	.	8AJ	.	.	.
!!LO:LB:g=original
=167	=167	=167	=167	=167	=167	=167	=167
4.GG	A-	1.r	.	2B	-i	2e	.
8AA	.	.	.	.	.	.	.
4BB	.	.	.	2G	Pa-	1d	-tris.
4C	.	.	.	.	.	.	.
2D	.	.	.	2F	.	.	.
=168	=168	=168	=168	=168	=168	=168	=168
2E	.	1.r	.	2G	-tris.	2g	A-
1F	.	.	.	2c	A-	4a	.
.	.	.	.	.	.	4b	.
.	.	.	.	2A	.	4cc	.
.	.	.	.	.	.	4dd	.
=169	=169	=169	=169	=169	=169	=169	=169
*lig	*	*	*	*	*	*	*
*col	*	*	*	*	*	*	*
2G	.	1.r	.	2G	.	2b	.
2D	.	.	.	2d	.	2.a	.
*Xlig	*	*	*	*	*	*	*
*lig	*	*	*	*	*	*	*
[2E-X	.	.	.	2B-i	.	.	.
.	.	.	.	.	.	4g	.
=170	=170	=170	=170	=170	=170	=170	=170
2E-]	.	1.r	.	2G	.	1g	.
1D	.	.	.	1A	.	.	.
*Xcol	*	*	*	*	*	*	*
*Xlig	*	*	*	*	*	*	*
.	.	.	.	.	.	2f#i	.
=171	=171	=171	=171	=171	=171	=171	=171
*	*	*	*	*lig	*	*	*
[1.GGl	-men.	[1.Gl	Amen.	1.B	-men.	[1.gl	-men.
=172	=172	=172	=172	=172	=172	=172	=172
1.GG]	.	1.G]	.	1.dl	.	1.g]	.
*	*	*	*	*Xlig	*	*	*
==	==	==	==	==	==	==	==
*-	*-	*-	*-	*-	*-	*-	*-
!!!system-decoration: [*]
!!!RDF**kern: j = editorial accidental, optional, paren up
!!!RDF**kern: i = editorial accidental
!!!RDF**kern: l = terminal breve
!!!PTL: Gaspar van Weerbeke: Collected Works. I. Masses, Part 1
!!!PPR: American Institute of Musicology
!!!PC#: Corpus Mensurabilis Musicae 106/I.1
!!!PDT: 2016
!!!PED: Pavanello, Agnese
!!!YEM: CC-BY-SA 4.0 (https://creativecommons.org/licenses/by-nc/4.0/legalcode)
!!!EED: Mair-Gruber, Roland
!!!EEV: 2021/10/23
